X:1
T:Title
%%score { ( 1 3 ) | 2 }
L:1/8
M:4/4
K:Eb
V:1 treble nm="Grand Piano"
V:3 treble 
V:2 bass 
V:1
 z4 z2[Q:1/4=100] EF | GGGG G<[GB] E>F | G6 FG | AA[FA][FA] [FA]<[Ac] [GB]>[FA] | G6 EF | %5
 GG G>A G2 EG | [GB][GB] [GB]>[Ac] [GB]2 [GB][GB] | [Ge][Ge][Bd][Ac] [Ac]<[GB] [Fd]>[Ec] | %8
[M:3/4] [DB]6 |[M:1/4] [DB]>[DA] |[M:4/4] G6 z2 | A6 z2 | AA[FA][FA] [FA]<[Ac] [GB]>[FA] | G6 z2 | %14
 [GB][GB] [GB]>[Ac] [GB]2 [GB][GB] | [Ge][Ge][Bd][Ac] [GB]2 [GB][GB] | %16
 c<c Ac [Ac]<[GB] [EG]>[A,DF] | %17
[M:7/8] [G,E]2 [B,DF]>[B,DF] [B,EG]3[Q:1/4=98][Q:1/4=95][Q:1/4=93][Q:1/4=90][Q:1/4=88][Q:1/4=85][Q:1/4=83][Q:1/4=80][Q:1/4=78] |] %18
V:2
 z4 z2 [E,G,][E,A,E] | [E,B,E][E,B,E][E,B,E][E,B,E] [E,B,E]<[E,B,] [E,G,]>[E,A,E] | %2
 [E,B,E]6 [A,B,D][G,B,E] | [F,B,F][F,B,F][D,B,][D,B,] [B,,B,]<[B,,B,] [B,,B,]>[D,B,] | %4
 [E,B,E]6 [E,G,][E,A,E] | [E,B,E][E,B,E] [E,B,E]>[E,CE] [E,B,E]2 [E,G,B,][E,B,E] | %6
 [E,E][E,E] [E,E]>[E,E] [E,E]2 [E,E][E,E] | [E,B,][E,B,][E,E][E,E] [E,E]<[E,E] [F,B,]>[F,=A,] | %8
[M:3/4] [B,,B,]6 |[M:1/4] [B,,F,]>[B,,B,] |[M:4/4] [E,B,E]2 [G,B,]>[F,B,] [E,B,]2 [B,,B,]>[B,,B,] | %11
 [B,,B,]2 [D,B,]>[C,B,] [B,,B,]2 [A,B,D][G,B,E] | %12
 [F,B,F][F,B,F][D,B,][D,B,] [B,,B,]<[B,,B,] [B,,B,]>[D,B,] | %13
 [E,B,E]2 [G,B,]>[F,B,] [E,B,]2 [E,B,E][E,E] | [E,E][E,E] [E,E]>[E,E] [E,E]2 [E,E][E,E] | %15
 [E,B,][E,B,][E,E][E,E] [E,E]2 [E,E][E,E] | [A,EA]<[A,EA] [A,CE][A,EA][K:bass] [E,E]<[E,E] B,>B,, | %17
[M:7/8] E,2 B,,>B,, E,3 |] %18
V:3
 x8 | x8 | x8 | x8 | x8 | x8 | x8 | x8 |[M:3/4] x6 |[M:1/4] x2 |[M:4/4] z2 E>E E2 [Dc]>[DB] | %11
 D2 F>E D2 FG | x8 | z2 E>E E2 G[FA] | x8 | x8 | x8 |[M:7/8] x7 |] %18

